projects/ccf-eui/src/assets/icons/organ-icons/organ-icon-fallopian-tube-left.svg

<svg width="64" height="64" viewBox="0 0 64 64" fill="currentColor" xmlns="http://www.w3.org/2000/svg">
<path d="M3.30664 8.25602C10.2826 7.06135 11.1146 13.9093 14.784 14.144C16.4513 14.2631 18.1068 13.7869 19.456 12.8L21.1626 17.8773C21.1626 17.8773 19.0293 19.8187 19.0293 21.184C19.0293 22.5493 20.16 27.2853 18.24 30.8907C16.32 34.496 13.568 36.928 12.8 39.5733C12.032 42.2187 12.8 43.1787 11.3706 49.28C10.7206 52.6276 9.29595 55.7765 7.21064 58.4747H3.30664V8.25602Z" />
<path d="M44.7999 28.7787C42.4319 30.912 40.4053 30.912 38.1653 31.8933C39.1609 31.802 40.1643 31.9348 41.1019 32.2818C42.0396 32.6288 42.8876 33.1812 43.5839 33.8987C44.9706 35.072 47.4239 34.8373 48.1493 36.16C48.0426 33.0027 51.9679 30.272 53.4186 28.16C63.1253 13.8027 49.7066 4.26668 34.1333 7.14668C28.3075 8.28781 22.7491 10.517 17.7493 13.7173L19.3066 20.1173C23.5343 16.64 28.5168 14.1999 33.8559 12.992C44.5653 10.432 56.2559 18.624 44.7999 28.7787Z" />
<path d="M38.7839 31.5947C38.6559 31.5947 28.6293 33.728 28.6293 33.728C23.6586 35.6267 26.4959 37.1627 32.2986 36.3947C36.8213 35.776 40.5973 34.2613 40.5119 35.2213C40.4266 36.1813 33.1093 40.0853 33.9413 41.5147C34.7733 42.944 42.9226 37.12 43.6693 38.5067C44.1 39.1713 44.4441 39.8882 44.6933 40.64C45.9306 43.392 47.1253 46.6987 48.1919 44.9067C48.6178 44.1014 48.8405 43.2043 48.8405 42.2933C48.8405 41.3824 48.6178 40.4852 48.1919 39.68C47.8364 38.5481 47.8364 37.3345 48.1919 36.2027L46.9333 33.0453L38.7839 31.5947Z" />
</svg>

<svg xmlns="http://www.w3.org/2000/svg" width="64" height="64" fill="currentColor" viewBox="0 0 64 64"><path d="M3.307 8.256c6.976-1.195 7.808 5.653 11.477 5.888a7.06 7.06 0 0 0 4.672-1.344l1.707 5.077s-2.134 1.942-2.134 3.307 1.131 6.101-.789 9.707c-1.92 3.605-4.672 6.037-5.44 8.682s0 3.606-1.43 9.707a21.85 21.85 0 0 1-4.16 9.195H3.308z"/><path d="M44.8 28.779c-2.368 2.133-4.395 2.133-6.635 3.114a6.7 6.7 0 0 1 5.419 2.006c1.387 1.173 3.84.938 4.565 2.261-.106-3.157 3.819-5.888 5.27-8 9.706-14.357-3.712-23.893-19.286-21.013a47.2 47.2 0 0 0-16.384 6.57l1.558 6.4a35.1 35.1 0 0 1 14.549-7.125c10.71-2.56 22.4 5.632 10.944 15.787"/><path d="M38.784 31.595c-.128 0-10.155 2.133-10.155 2.133-4.97 1.899-2.133 3.435 3.67 2.667 4.522-.619 8.298-2.134 8.213-1.174s-7.403 4.864-6.57 6.294c.831 1.429 8.98-4.395 9.727-3.008.431.664.775 1.381 1.024 2.133 1.238 2.752 2.432 6.059 3.499 4.267a5.59 5.59 0 0 0 0-5.227 5.8 5.8 0 0 1 0-3.477l-1.259-3.158z"/></svg>
